X:4
T:Amerikatur nr. II (pols)
R:rorospols
Z:Småviltlaget, på Skuddhold, Track 5
Z:Nyhus #125, "Pols"
M:3/4
L:1/8
K:D
g2
|: "D"~(f>e) (d<c) d>f | "Em"(f<g) B2- ~B2 | "A"A>(B c<d) e>c |
    "D"d>(c d<e) (f2 |
    "D"~f>e) (d<c) d>f | "Em"(f<g) B2- ~B2| "A"A>(B c<d) e>c |
    "D"d2 d4 :|
|: "D"D2 (F<D) F>F | "G"G2 (G<F) G>B | "A"A>(B c<d) e>c |
   "D"d>(c d<e) f>f |
   "D"D2 (F<D) F>F | "G"G2 (G<F) G>B | "A"A>(B c<d) e>c |
   "D"d2 d4 :|
